packages/kaspersky-hexa-ui-icons/src/iconsSVGs/24/Flush1.svg

<svg width="24" height="24" viewBox="0 0 24 24" fill="none" xmlns="http://www.w3.org/2000/svg">
<path d="M12 1C12.5523 1 13 1.44772 13 2V7C13 7.55228 12.5523 8 12 8C11.4477 8 11 7.55228 11 7V2C11 1.44772 11.4477 1 12 1Z" fill="black"/>
<path fill-rule="evenodd" clip-rule="evenodd" d="M2 12C2 10.3431 3.34315 9 5 9H19C20.6569 9 22 10.3431 22 12V20C22 21.6569 20.6569 23 19 23H5C3.34315 23 2 21.6569 2 20V12ZM5.58581 11L11.3694 15.6992C11.7368 15.9977 12.2632 15.9977 12.6306 15.6992L18.4142 11H5.58581ZM20 12.2885L13.8918 17.2514C12.7896 18.1469 11.2104 18.1469 10.1082 17.2514L4 12.2885V20C4 20.5523 4.44772 21 5 21H19C19.5523 21 20 20.5523 20 20V12.2885Z" fill="black"/>
<path d="M17 4C17 3.44772 16.5523 3 16 3C15.4477 3 15 3.44772 15 4V7C15 7.55228 15.4477 8 16 8C16.5523 8 17 7.55228 17 7V4Z" fill="black"/>
<path d="M8 3C8.55228 3 9 3.44772 9 4V7C9 7.55228 8.55228 8 8 8C7.44772 8 7 7.55228 7 7V4C7 3.44772 7.44772 3 8 3Z" fill="black"/>
</svg>

<svg xmlns="http://www.w3.org/2000/svg" width="24" height="24" fill="none" viewBox="0 0 24 24"><path fill="#000" d="M12 1c.5523 0 1 .4477 1 1v5c0 .5523-.4477 1-1 1s-1-.4477-1-1V2c0-.5523.4477-1 1-1"/><path fill="#000" fill-rule="evenodd" d="M2 12c0-1.6569 1.3432-3 3-3h14c1.6569 0 3 1.3431 3 3v8c0 1.6569-1.3431 3-3 3H5c-1.6568 0-3-1.3431-3-3zm3.5858-1 5.7836 4.6992a1 1 0 0 0 1.2612 0L18.4142 11zM20 12.2885l-6.1082 4.9629c-1.1022.8955-2.6814.8955-3.7836 0L4 12.2885V20c0 .5523.4477 1 1 1h14c.5523 0 1-.4477 1-1z" clip-rule="evenodd"/><path fill="#000" d="M17 4c0-.552-.448-1-1-1s-1 .448-1 1v3c0 .552.448 1 1 1s1-.448 1-1zM8 3c.552 0 1 .448 1 1v3c0 .552-.448 1-1 1s-1-.448-1-1V4c0-.552.448-1 1-1"/></svg>
